X: 4
T:Scarborough Fair / Canticle (Canticle)
C:Paul Simon, Art Garfunkel
M:3/4
L:1/4
K:G
"(7)" z3 |]
%
  E2 E | B/2 B3/2-B/2 B/2 | F3/2 G/2 F | E3- | E3 | z
w:1,5.~Are you go-ing to Scar-bor-ough Fair?_
  B d | e2 d | B ^c A | B3- | B3- | B3- | B z
w:Pars-ley, sage, rose-mar-y, and thyme.___
  e | e2 e | d2 B | B A G | F3- | F3 |
w:Re-mem-ber me to one who lives there,_
  E2 B | A2 G | F E D | E3- | E3- | E3- | E3 |]
w:She once was a true love of mine.___
%
  z3 | z E E | D E D | G F E |
w:2.~On the side of a hill in the
  E E D | B,3 | z3 | z3 |
w:deep for-est green.
  d e d | e e e | f f f | e3 |
w:Trac-ing of spar-row on snow-crest-ed brown.
  z3 | z3 | D E E | D D D |
w:Blan-kets and bed-clothes the
  D E D | E E2 | z3 | z3 |
w:child of the moun-tain.
  G F G | A G F | G F D | E3 ||
w:Sleeps un-a-ware of the clar-i-on call.
%
  z3 | z E E | F G F | E2 E |
w:3.~On the side of a hill a
  E E D | B,3 | z3 | z3 |
w:sprink-ling of leaves.
  d e d | A2 c | d c A | B3 |
w:Wash-es the grave with sil-ver-y tears.
  z3 | z3 | G A B | d2 A |
w:A sol-dier cleans and
  d-d/2 A/2 d/2c/2 | e3 | z3 | z3 |
w:po_ lish-es a gun.
  E3- | E3- | E3- | E3 ||
w:mine.
%
  z3 | z3 | D E D | G F E |
w:4.~War bel-lows blaz-ing in
  E E D | E B,2 | z3 | z3 |
w:scar-let bat-tal-ions.
  d e d | e e e | f f f | e3 |
w:Gen-er-als or-der their sol-diers to kill.
  z3 | z d d | d B d | A2 D |
w:And to fight for a cause they've
  D/2E/2 F G | E E2 | z3 | z3 |
w:Long a-go for-got-ten.
  E3- | E3- | E3- | E3 |]
w:mine.
